src/assets/Devices/Xbox Back-paddles.svg

<svg width="869" height="623" viewBox="0 0 869 623" fill="none" xmlns="http://www.w3.org/2000/svg">
<path d="M519.867 34.3064H500.157C500.385 32.7091 501.759 31.4811 503.419 31.4811H516.604C518.265 31.4811 519.638 32.7091 519.867 34.3064Z" stroke="white" stroke-width="0.941764"/>
<path d="M550.976 59.6758C469.677 59.8971 398.773 60.1451 317.418 59.65V34.4149H550.976V59.6758Z" stroke="white" stroke-width="1.88353"/>
<path d="M317.418 35.1865H550.976" stroke="white" stroke-width="5.65059"/>
<path d="M142.947 66.4765C141.224 69.0249 139.687 71.7389 138.262 74.6928C138.982 74.1526 139.78 73.5793 140.648 72.9779C141.267 70.7588 142.035 68.5867 142.947 66.4765Z" stroke="white" stroke-width="1.88353"/>
<path d="M249.583 52.649C248.523 49.605 247.087 46.7008 245.305 44.0051L239.502 35.2276L231.416 18.7682C239.679 16.7872 247.784 15.2909 255.422 14.3131C256.434 14.1836 257.429 14.0551 258.409 13.9287L258.411 13.9284C278.807 11.2962 292.226 9.56447 295.811 18.5503C295.978 18.9698 296.141 19.378 296.299 19.7752L296.362 19.9342C300.584 30.5484 305.865 33.7506 315.536 34.415V59.7322C285.412 59.7322 264.8 56.3693 249.583 52.649Z" stroke="white" stroke-width="1.88353"/>
<path d="M231.414 19.5398C239.676 17.5588 247.781 16.0625 255.42 15.0847C256.431 14.9552 257.427 14.8267 258.406 14.7003L258.408 14.7C278.805 12.0678 292.224 10.3361 295.808 19.3219C295.976 19.7414 296.138 20.1496 296.296 20.5468L296.359 20.7058C300.582 31.32 305.863 34.5222 315.534 35.1866" stroke="white" stroke-width="5.65059"/>
<path d="M726.786 68.1894C727.633 70.3651 728.331 72.6004 728.872 74.8799C729.749 75.5224 730.563 76.141 731.306 76.7312C729.919 73.6498 728.439 70.8277 726.786 68.1894Z" stroke="white" stroke-width="1.88353"/>
<path d="M619.398 52.7906C605.083 56.4699 584.816 59.7581 553.082 59.7581V34.415C562.753 33.7506 568.034 30.5484 572.256 19.9342L572.28 19.8751C572.45 19.4466 572.626 19.0051 572.807 18.5503C576.392 9.56447 589.811 11.2962 610.208 13.9284L610.209 13.9287L610.218 13.9297C611.195 14.0558 612.188 14.1839 613.196 14.3131C620.948 15.3054 629.18 16.8317 637.57 18.8568L629.528 35.2276L623.725 44.0051C621.915 46.7426 620.462 49.6951 619.398 52.7906Z" stroke="white" stroke-width="1.88353"/>
<path d="M553.082 35.1866C562.753 34.5222 568.034 31.32 572.256 20.7058L572.28 20.6467C572.45 20.2182 572.626 19.7767 572.807 19.3219C576.392 10.3361 589.811 12.0678 610.208 14.7L610.209 14.7003L610.218 14.7014C611.195 14.8274 612.188 14.9555 613.196 15.0847C620.948 16.077 629.18 17.6033 637.57 19.6284" stroke="white" stroke-width="5.65059"/>
<path d="M613.274 67.4834H256.07C249.073 106.96 219.031 139.286 178.822 148.356C155.383 153.643 133.309 135.257 134.269 111.249L135.35 84.2322C121.205 100.425 110.421 122.524 100.345 144.772C80.5684 188.44 3.34375 362.206 3.34375 476.836C3.34375 591.466 69.2673 615.12 76.8014 616.94C77.7374 617.166 78.717 617.462 79.7384 617.771C82.816 618.702 86.2732 619.747 90.0605 619.333C107.82 620.804 141.457 604.909 164.373 576.151C173.52 564.673 181.505 545.807 188.382 529.562C192.202 520.535 195.681 512.318 198.826 506.626C204.881 495.667 209.699 486.946 213.345 482.916C215.855 480.142 219.366 476.552 223.732 472.823C238.081 462.73 254.22 456.313 274.572 455.911C302.572 455.359 382.704 455.47 419.604 455.688V455.911C423.953 455.871 429.038 455.829 434.672 455.788C440.306 455.829 445.39 455.871 449.74 455.911V455.688C486.64 455.47 566.772 455.359 594.772 455.911C615.059 456.311 631.16 462.689 645.475 472.727C649.893 476.491 653.443 480.118 655.974 482.916C659.62 486.946 664.439 495.667 670.494 506.626C673.968 512.914 676.677 521.113 679.557 529.832L679.557 529.833C683.976 543.208 688.798 557.808 697.412 568.617C720.232 597.254 760.484 619.938 778.979 619.296C782.885 619.803 786.446 618.727 789.605 617.771C790.627 617.462 791.606 617.166 792.542 616.94C800.076 615.12 866 591.466 866 476.836C866 362.206 788.775 188.44 768.998 144.772C759.357 123.484 747.947 102.367 734.082 86.4148L735.075 111.249C736.035 135.257 713.961 153.643 690.522 148.356C650.313 139.286 620.271 106.96 613.274 67.4834Z" stroke="white" stroke-width="0.941764"/>
<path d="M135.35 84.2319C121.205 100.425 110.421 122.524 100.345 144.771C80.5684 188.44 3.34375 362.205 3.34375 476.836C3.34375 591.466 69.2673 615.12 76.8014 616.94C77.7374 617.166 78.717 617.462 79.7384 617.771C82.816 618.702 86.2732 619.747 90.0605 619.333C107.82 620.803 141.457 604.909 164.373 576.151C173.52 564.673 181.505 545.807 188.382 529.562C192.202 520.535 195.681 512.317 198.826 506.626C204.881 495.667 209.699 486.946 213.345 482.916C215.855 480.142 219.366 476.552 223.732 472.823C238.081 462.73 254.22 456.312 274.572 455.911C302.572 455.359 382.704 455.47 419.604 455.688V455.911C423.953 455.871 429.038 455.829 434.672 455.788C440.306 455.829 445.39 455.871 449.74 455.911V455.688C486.64 455.47 566.772 455.359 594.772 455.911C615.059 456.311 631.16 462.689 645.475 472.727C649.893 476.49 653.443 480.118 655.974 482.916C659.62 486.946 664.439 495.667 670.494 506.626C673.968 512.914 676.677 521.112 679.557 529.832L679.557 529.833C683.976 543.208 688.798 557.807 697.412 568.617C720.232 597.253 760.484 619.938 778.979 619.296C782.885 619.803 786.446 618.726 789.605 617.771C790.627 617.462 791.606 617.166 792.542 616.94C800.076 615.12 866 591.466 866 476.836C866 362.205 788.775 188.44 768.998 144.771C759.357 123.484 747.947 102.367 734.082 86.4146" stroke="white" stroke-width="6" stroke-linecap="round" stroke-linejoin="round"/>
<path d="M286.492 58.5367H286.021V59.0076V244.912V244.934C286.021 249.135 286.021 252.315 286.228 254.847C286.436 257.389 286.854 259.318 287.715 261.007C289.205 263.931 291.582 266.308 294.506 267.798C296.195 268.659 298.124 269.077 300.666 269.285C303.198 269.492 306.378 269.492 310.579 269.492H310.601H565.631H565.653C569.854 269.492 573.034 269.492 575.566 269.285C578.108 269.077 580.038 268.659 581.727 267.798C584.651 266.308 587.028 263.931 588.518 261.007C589.378 259.318 589.797 257.389 590.004 254.847C590.211 252.315 590.211 249.135 590.211 244.934V244.912V59.0076V58.5367H589.74H286.492Z" stroke="white" stroke-width="0.941764"/>
<path d="M410.528 47.097C410.528 45.3388 411.953 43.9134 413.712 43.9134H456.217C457.976 43.9134 459.401 45.3388 459.401 47.097C459.401 48.8553 457.976 50.2807 456.217 50.2807H413.712C411.953 50.2807 410.528 48.8553 410.528 47.097Z" stroke="white" stroke-width="1.11075"/>
<line x1="420.293" y1="48.3375" x2="450.283" y2="48.3375" stroke="white" stroke-width="2.2215"/>
<path d="M680.148 146.592C680.148 237.74 708.401 300.405 734.771 368.767C761.14 437.129 779.975 528.277 778.092 619.426" stroke="white" stroke-width="0.470882"/>
<path d="M187.297 146.592C187.297 237.74 159.044 300.405 132.675 368.767C106.305 437.129 87.4698 528.277 89.3534 619.426" stroke="white" stroke-width="0.470882"/>
<rect x="411.342" y="338.747" width="47.8955" height="9.41764" rx="4.70882" stroke="white" stroke-width="0.941764"/>
<path d="M561.016 440.893C561.016 442.439 559.75 443.965 557.414 445.133C555.107 446.287 551.885 447.014 548.302 447.014C544.718 447.014 541.497 446.287 539.189 445.133C536.854 443.965 535.588 442.439 535.588 440.893C535.588 439.347 536.854 437.821 539.189 436.653C541.497 435.499 544.718 434.772 548.302 434.772C551.885 434.772 555.107 435.499 557.414 436.653C559.75 437.821 561.016 439.347 561.016 440.893Z" stroke="white" stroke-width="0.941764"/>
<path d="M553.483 439.009C553.483 439.515 553.06 440.1 552.088 440.586C551.144 441.058 549.806 441.364 548.303 441.364C546.8 441.364 545.462 441.058 544.518 440.586C543.545 440.1 543.123 439.515 543.123 439.009C543.123 438.504 543.545 437.919 544.518 437.433C545.462 436.961 546.8 436.655 548.303 436.655C549.806 436.655 551.144 436.961 552.088 437.433C553.06 437.919 553.483 438.504 553.483 439.009Z" stroke="white" stroke-width="0.941764"/>
<rect x="374.545" y="431.946" width="124.637" height="17.4226" rx="3.29618" stroke="white" stroke-width="0.941764"/>
<rect x="372.427" y="427.473" width="128.875" height="23.0732" rx="4.47338" stroke="white" stroke-width="0.470882"/>
<path d="M435.479 242.51L435.291 242.261L435.103 242.51L425.504 255.224L425.219 255.601H425.692H444.89H445.363L445.078 255.224L435.479 242.51Z" stroke="white" stroke-width="0.470882"/>
<path d="M238.154 35.889L238.197 35.9749L238.249 36.0549L244.053 44.8323C246.353 48.3113 248.053 52.1514 249.083 56.1928C251.015 63.7752 250.513 71.7731 247.648 79.0544L246.588 81.7472L242.207 92.0271C241.088 94.6511 239.746 97.1739 238.194 99.5674L236.369 102.384C224.932 120.025 208.03 133.432 188.249 140.554L184.417 141.933C173.432 145.887 161.223 144.4 151.508 137.924C147.517 135.263 144.446 131.433 142.716 126.96L142.185 125.587L140.786 126.128L142.185 125.587C139.975 119.869 138.982 113.753 139.272 107.629L140.464 82.4147C141.36 71.8912 145.618 61.9349 152.609 54.0181L153.194 53.3561C156.122 50.0397 158.782 46.4951 161.147 42.7559L181.349 10.8183L180.081 10.0164L181.349 10.8183C181.965 9.843 182.703 8.94938 183.543 8.15848L182.515 7.06618L183.543 8.15848C185.084 6.70803 186.94 5.63328 188.965 5.01811L193.897 3.51976C200.3 1.5743 207.136 1.56241 213.547 3.48556L219.04 5.1337C220.823 5.66842 222.445 6.63713 223.76 7.95296L224.821 6.8923L223.76 7.95297C224.634 8.82637 225.357 9.8377 225.902 10.9463L238.154 35.889ZM630.78 36.0549L630.833 35.9749L630.876 35.889L643.128 10.9463C643.673 9.83769 644.396 8.82637 645.27 7.95298L644.209 6.8923L645.27 7.95295C646.585 6.63713 648.207 5.66842 649.99 5.1337L655.483 3.48556C661.894 1.56241 668.73 1.5743 675.133 3.51976L680.065 5.01811C682.09 5.63328 683.946 6.70803 685.487 8.15849C686.327 8.94939 687.065 9.84302 687.681 10.8182L707.883 42.7559C710.248 46.4951 712.908 50.0397 715.836 53.3561L716.421 54.0181C723.412 61.9348 727.67 71.891 728.565 82.4144L729.758 107.629C730.048 113.753 729.055 119.869 726.844 125.587L726.314 126.96C724.584 131.433 721.513 135.263 717.522 137.924C707.807 144.4 695.598 145.887 684.613 141.933L680.781 140.554C661 133.432 644.098 120.025 632.661 102.384L630.836 99.5674C629.284 97.1739 627.942 94.6511 626.823 92.0271L622.441 81.7467L621.382 79.0545C618.517 71.7731 618.015 63.7752 619.947 56.1928C620.977 52.1514 622.677 48.3113 624.977 44.8323L630.78 36.0549Z" stroke="white" stroke-width="3"/>
<rect x="424.694" y="258.308" width="21.1897" height="2.58985" stroke="white" stroke-width="0.470882"/>
</svg>

<svg width="869" height="623" fill="none" xmlns="http://www.w3.org/2000/svg"><path d="M519.868 34.306h-19.71a3.296 3.296 0 0 1 3.262-2.825h13.185a3.297 3.297 0 0 1 3.263 2.825Z" stroke="#fff" stroke-width=".942"/><path d="M550.977 59.676c-81.299.221-152.203.47-233.558-.026V34.415h233.558v25.26Z" stroke="#fff" stroke-width="1.884"/><path d="M317.419 35.187h233.558" stroke="#fff" stroke-width="5.651"/><path d="M142.946 66.476c-1.723 2.549-3.26 5.263-4.685 8.217a77.99 77.99 0 0 1 2.386-1.715 50.775 50.775 0 0 1 2.299-6.502Zm106.636-13.827a38.833 38.833 0 0 0-4.278-8.644l-5.803-8.778-8.086-16.459c8.263-1.981 16.368-3.477 24.006-4.455l2.987-.385h.002c20.396-2.632 33.815-4.364 37.4 4.622l.488 1.225.063.16c4.222 10.613 9.503 13.816 19.174 14.48v25.317c-30.124 0-50.736-3.363-65.953-7.083Z" stroke="#fff" stroke-width="1.884"/><path d="M231.415 19.54c8.262-1.982 16.367-3.478 24.006-4.456l2.986-.384h.002c20.397-2.632 33.816-4.364 37.4 4.622l.488 1.225.063.159c4.223 10.614 9.504 13.816 19.175 14.48" stroke="#fff" stroke-width="5.651"/><path d="M726.787 68.19a50.745 50.745 0 0 1 2.086 6.69 78.01 78.01 0 0 1 2.434 1.851c-1.387-3.081-2.867-5.903-4.52-8.542Zm-107.388-15.4c-14.315 3.68-34.582 6.968-66.316 6.968V34.415c9.671-.664 14.952-3.867 19.174-14.48l.024-.06.527-1.325c3.585-8.986 17.004-7.254 37.4-4.622h.002l.009.002 2.978.383c7.752.992 15.984 2.519 24.374 4.544l-8.042 16.37-5.803 8.778a38.793 38.793 0 0 0-4.327 8.785Z" stroke="#fff" stroke-width="1.884"/><path d="M553.083 35.186c9.671-.664 14.952-3.866 19.174-14.48l.024-.06.527-1.324c3.585-8.986 17.004-7.254 37.4-4.622h.002l.009.001 2.978.383c7.752.993 15.984 2.519 24.374 4.544" stroke="#fff" stroke-width="5.651"/><path d="M613.274 67.483H256.07c-6.997 39.477-37.039 71.803-77.248 80.873-23.439 5.287-45.513-13.099-44.553-37.107l1.081-27.017c-14.145 16.193-24.929 38.292-35.005 60.54C80.568 188.44 3.344 362.206 3.344 476.836c0 114.63 65.923 138.284 73.457 140.104.936.226 1.916.522 2.937.831 3.078.931 6.535 1.976 10.323 1.562 17.759 1.471 51.396-14.424 74.312-43.182 9.147-11.478 17.132-30.344 24.009-46.589 3.82-9.027 7.299-17.244 10.444-22.936 6.055-10.959 10.873-19.68 14.519-23.71a113.792 113.792 0 0 1 10.387-10.093c14.349-10.093 30.488-16.51 50.84-16.912 28-.552 108.132-.441 145.032-.223v.223c4.349-.04 9.434-.082 15.068-.123a7950.4 7950.4 0 0 1 15.068.123v-.223c36.9-.218 117.032-.329 145.032.223 20.287.4 36.388 6.778 50.703 16.816a113.78 113.78 0 0 1 10.499 10.189c3.646 4.03 8.465 12.751 14.52 23.71 3.474 6.288 6.183 14.487 9.063 23.206v.001c4.419 13.375 9.241 27.975 17.855 38.784 22.82 28.637 63.072 51.321 81.567 50.679 3.906.507 7.467-.569 10.626-1.525 1.022-.309 2.001-.605 2.937-.831C800.076 615.12 866 591.466 866 476.836c0-114.63-77.225-288.396-97.002-332.064-9.641-21.288-21.051-42.405-34.916-58.357l.993 24.834c.96 24.008-21.114 42.394-44.553 37.107-40.209-9.07-70.251-41.396-77.248-80.873Z" stroke="#fff" stroke-width=".942"/><path d="M135.35 84.232c-14.145 16.193-24.929 38.292-35.005 60.539C80.568 188.44 3.344 362.205 3.344 476.836c0 114.63 65.923 138.284 73.457 140.104.936.226 1.916.522 2.937.831 3.078.931 6.535 1.976 10.323 1.562 17.759 1.47 51.396-14.424 74.312-43.182 9.147-11.478 17.132-30.344 24.009-46.589 3.82-9.027 7.299-17.245 10.444-22.936 6.055-10.959 10.873-19.68 14.519-23.71a113.792 113.792 0 0 1 10.387-10.093c14.349-10.093 30.488-16.511 50.84-16.912 28-.552 108.132-.441 145.032-.223v.223c4.349-.04 9.434-.082 15.068-.123a7950.4 7950.4 0 0 1 15.068.123v-.223c36.9-.218 117.032-.329 145.032.223 20.287.4 36.388 6.778 50.703 16.816a113.65 113.65 0 0 1 10.499 10.189c3.646 4.03 8.465 12.751 14.52 23.71 3.474 6.288 6.183 14.486 9.063 23.206v.001c4.419 13.375 9.241 27.974 17.855 38.784 22.82 28.636 63.072 51.321 81.567 50.679 3.906.507 7.467-.57 10.626-1.525 1.022-.309 2.001-.605 2.937-.831C800.076 615.12 866 591.466 866 476.836c0-114.631-77.225-288.396-97.002-332.065-9.641-21.287-21.051-42.404-34.916-58.356" stroke="#fff" stroke-width="6" stroke-linecap="round" stroke-linejoin="round"/><path d="M286.491 58.536h-.471v186.398c0 4.201 0 7.381.207 9.913.208 2.542.626 4.471 1.487 6.16a15.54 15.54 0 0 0 6.791 6.791c1.689.861 3.618 1.279 6.16 1.487 2.532.207 5.712.207 9.913.207h255.074c4.201 0 7.382 0 9.913-.207 2.542-.208 4.472-.626 6.161-1.487a15.54 15.54 0 0 0 6.791-6.791c.86-1.689 1.279-3.618 1.486-6.16.207-2.532.207-5.712.207-9.913V58.537H286.491Z" stroke="#fff" stroke-width=".942"/><path d="M410.53 47.097a3.183 3.183 0 0 1 3.184-3.184h42.505a3.183 3.183 0 1 1 0 6.368h-42.505a3.183 3.183 0 0 1-3.184-3.184Z" stroke="#fff" stroke-width="1.111"/><path stroke="#fff" stroke-width="2.221" d="M420.294 48.337h29.99"/><path d="M680.148 146.592c0 91.149 28.253 153.814 54.623 222.175 26.369 68.362 45.204 159.511 43.321 250.66M187.297 146.592c0 91.149-28.253 153.814-54.622 222.175-26.37 68.362-45.205 159.511-43.322 250.66" stroke="#fff" stroke-width=".471"/><rect x="411.342" y="338.746" width="47.895" height="9.418" rx="4.709" stroke="#909090" stroke-width=".942"/><path d="M561.016 440.893c0 1.546-1.266 3.073-3.602 4.24-2.307 1.154-5.529 1.882-9.112 1.882-3.584 0-6.805-.728-9.113-1.882-2.335-1.167-3.601-2.694-3.601-4.24 0-1.546 1.266-3.072 3.601-4.24 2.308-1.154 5.529-1.881 9.113-1.881 3.583 0 6.805.727 9.112 1.881 2.336 1.168 3.602 2.694 3.602 4.24Z" stroke="#fff" stroke-width=".942"/><path d="M553.482 439.009c0 .506-.423 1.091-1.395 1.577-.944.472-2.282.778-3.785.778-1.503 0-2.841-.306-3.785-.778-.973-.486-1.395-1.071-1.395-1.577 0-.505.422-1.09 1.395-1.576.944-.472 2.282-.778 3.785-.778 1.503 0 2.841.306 3.785.778.972.486 1.395 1.071 1.395 1.576Z" stroke="#fff" stroke-width=".942"/><rect x="374.546" y="431.946" width="124.637" height="17.423" rx="3.296" stroke="#fff" stroke-width=".942"/><rect x="372.427" y="427.473" width="128.875" height="23.073" rx="4.473" stroke="#fff" stroke-width=".471"/><path d="m435.478 242.51-.188-.249-.188.249-9.599 12.713-.285.378h20.144l-.285-.378-9.599-12.713Z" stroke="#fff" stroke-width=".471"/><path d="m238.154 35.889.043.086.052.08 5.804 8.777a37.29 37.29 0 0 1 3.595 34.222l-1.06 2.693-4.381 10.28a49.665 49.665 0 0 1-4.013 7.54l-1.825 2.816a96.164 96.164 0 0 1-48.12 38.17l-3.832 1.38a36.838 36.838 0 0 1-32.909-4.009 23.265 23.265 0 0 1-8.792-10.964l-.531-1.373-1.399.541 1.399-.541a44.037 44.037 0 0 1-2.913-17.958l1.192-25.215a49.207 49.207 0 0 1 12.145-28.396l.585-.662a83.273 83.273 0 0 0 7.953-10.6l20.202-31.938-1.268-.802 1.268.802a13.714 13.714 0 0 1 2.194-2.66l-1.028-1.092 1.028 1.092a13.737 13.737 0 0 1 5.422-3.14l4.932-1.498a33.995 33.995 0 0 1 19.65-.035l5.493 1.649a11.236 11.236 0 0 1 4.72 2.819l1.061-1.06-1.061 1.06a11.242 11.242 0 0 1 2.142 2.993l12.252 24.943Zm392.626.166.053-.08.043-.086 12.252-24.943a11.242 11.242 0 0 1 2.142-2.993l-1.061-1.06 1.061 1.06a11.236 11.236 0 0 1 4.72-2.82l5.493-1.648a33.995 33.995 0 0 1 19.65.035l4.932 1.498a13.737 13.737 0 0 1 7.616 5.8l20.202 31.938a83.273 83.273 0 0 0 7.953 10.6l.585.662a49.2 49.2 0 0 1 12.144 28.396l1.193 25.215a44.021 44.021 0 0 1-2.914 17.958l-.53 1.373a23.265 23.265 0 0 1-8.792 10.964 36.838 36.838 0 0 1-32.909 4.009l-3.832-1.38a96.164 96.164 0 0 1-48.12-38.17l-1.825-2.816a49.665 49.665 0 0 1-4.013-7.54l-4.382-10.28-1.059-2.693a37.29 37.29 0 0 1 3.595-34.222l5.803-8.777Z" stroke="#fff" stroke-width="3"/><path stroke="#fff" stroke-width=".471" d="M424.695 258.309h21.19v2.59h-21.19z"/></svg>
